X: 685
T: Da shujiu
L: 1/8
K: D
A2d B [I:setbarnb 1]| 
A2F E | 
A B A D | 
E2E2 | 
B d B A | 
G2A2 | 
B e d B | 
A3G | 
A4 | 
A B A D | 
E2E2 | 
A B A D | 
E2E2 | 
A B A A | 
D B,/ D/ E G | 
BA2G | 
D ED2 | 
d3e | 
B d B A | 
B A E G | 
A2A d | 
B A E G | 
A2A2 | 
A B A A | 
D B,/ D/ E G | 
BA2G | 
D ED2 | 
A B A D | 
E2E2 | 
A B A D | 
E2E2 | 
A B A A | 
D B,/ D/E2 | 
[M:3/4]A G A B A A | 
[M:2/4]D B,/ D/ E G | 
BA2G | 
D ED2 |]

@@@ Tune index: 9559
